static/assets/images/icons/dead.svg

<svg width="256" height="256" viewBox="0 0 256 256" fill="none" xmlns="http://www.w3.org/2000/svg">
<path d="M128 228C154.522 228 179.957 217.464 198.711 198.711C217.464 179.957 228 154.522 228 128C228 101.478 217.464 76.043 198.711 57.2893C179.957 38.5357 154.522 28 128 28C101.478 28 76.043 38.5357 57.2893 57.2893C38.5357 76.043 28 101.478 28 128C28 154.522 38.5357 179.957 57.2893 198.711C76.043 217.464 101.478 228 128 228ZM128 140.5C134.63 140.5 140.989 143.134 145.678 147.822C150.366 152.511 153 158.87 153 165.5C153 172.13 150.366 178.489 145.678 183.178C140.989 187.866 134.63 190.5 128 190.5C121.37 190.5 115.011 187.866 110.322 183.178C105.634 178.489 103 172.13 103 165.5C103 158.87 105.634 152.511 110.322 147.822C115.011 143.134 121.37 140.5 128 140.5ZM67.3359 79.8359C69.7578 77.4141 73.7422 77.4141 76.1641 79.8359L90.5 94.1719L104.836 79.8359C107.258 77.4141 111.242 77.4141 113.664 79.8359C116.086 82.2578 116.086 86.2422 113.664 88.6641L99.3281 103L113.664 117.336C116.086 119.758 116.086 123.742 113.664 126.164C111.242 128.586 107.258 128.586 104.836 126.164L90.5 111.828L76.1641 126.164C73.7422 128.586 69.7578 128.586 67.3359 126.164C64.9141 123.742 64.9141 119.758 67.3359 117.336L81.6719 103L67.3359 88.6641C64.9141 86.2422 64.9141 82.2578 67.3359 79.8359ZM142.336 79.8359C144.758 77.4141 148.742 77.4141 151.164 79.8359L165.5 94.1719L179.836 79.8359C182.258 77.4141 186.242 77.4141 188.664 79.8359C191.086 82.2578 191.086 86.2422 188.664 88.6641L174.328 103L188.664 117.336C191.086 119.758 191.086 123.742 188.664 126.164C186.242 128.586 182.258 128.586 179.836 126.164L165.5 111.828L151.164 126.164C148.742 128.586 144.758 128.586 142.336 126.164C139.914 123.742 139.914 119.758 142.336 117.336L156.672 103L142.336 88.6641C139.914 86.2422 139.914 82.2578 142.336 79.8359Z" fill="black"/>
</svg>

<svg xmlns="http://www.w3.org/2000/svg" fill="none" viewBox="0 0 256 256"><path fill="#000" d="M128 228a100.003 100.003 0 0 0 100-100A100 100 0 0 0 128 28a100 100 0 1 0 0 200m0-87.5c6.63 0 12.989 2.634 17.678 7.322a25.004 25.004 0 0 1 0 35.356 25.004 25.004 0 0 1-35.356 0 25.004 25.004 0 0 1 0-35.356A25 25 0 0 1 128 140.5M67.336 79.836c2.422-2.422 6.406-2.422 8.828 0L90.5 94.172l14.336-14.336c2.422-2.422 6.406-2.422 8.828 0s2.422 6.406 0 8.828L99.328 103l14.336 14.336c2.422 2.422 2.422 6.406 0 8.828s-6.406 2.422-8.828 0L90.5 111.828l-14.336 14.336c-2.422 2.422-6.406 2.422-8.828 0s-2.422-6.406 0-8.828L81.672 103 67.336 88.664c-2.422-2.422-2.422-6.406 0-8.828m75 0c2.422-2.422 6.406-2.422 8.828 0L165.5 94.172l14.336-14.336c2.422-2.422 6.406-2.422 8.828 0s2.422 6.406 0 8.828L174.328 103l14.336 14.336c2.422 2.422 2.422 6.406 0 8.828s-6.406 2.422-8.828 0L165.5 111.828l-14.336 14.336c-2.422 2.422-6.406 2.422-8.828 0s-2.422-6.406 0-8.828L156.672 103l-14.336-14.336c-2.422-2.422-2.422-6.406 0-8.828"/></svg>
